svgs/regular/briefcase-medical.svg

<svg xmlns="http://www.w3.org/2000/svg" viewBox="0 0 512 512"><!--! Font Awesome Pro 6.0.0-alpha3 by @fontawesome - https://fontawesome.com License - https://fontawesome.com/license (Commercial License) --><path d="M448 96h-64V64c0-35.35-28.65-64-64-64H192C156.7 0 128 28.65 128 64v32H64C28.65 96 0 124.7 0 160v256c0 35.35 28.65 64 64 64h384c35.35 0 64-28.65 64-64V160C512 124.7 483.3 96 448 96zM176 64c0-8.838 7.164-16 16-16h128c8.836 0 16 7.162 16 16v32h-160V64zM464 416c0 8.799-7.199 16-16 16H64c-8.801 0-16-7.201-16-16V160c0-8.801 7.199-16 16-16h384c8.801 0 16 7.199 16 16V416zM336 256H288V208C288 199.2 280.8 192 272 192h-32C231.2 192 224 199.2 224 208V256H176C167.2 256 160 263.2 160 272v32C160 312.8 167.2 320 176 320H224v48C224 376.8 231.2 384 240 384h32c8.836 0 16-7.164 16-16V320h48c8.836 0 16-7.164 16-16v-32C352 263.2 344.8 256 336 256z"/></svg>

<svg xmlns="http://www.w3.org/2000/svg" viewBox="0 0 512 512"><!--! Font Awesome Pro 6.4.2 by @fontawesome - https://fontawesome.com License - https://fontawesome.com/license (Commercial License) Copyright 2023 Fonticons, Inc. --><path d="M184 48H328c4.4 0 8 3.6 8 8V96H176V56c0-4.4 3.6-8 8-8zm-56 8V96H64C28.7 96 0 124.7 0 160V416c0 35.3 28.7 64 64 64H448c35.3 0 64-28.7 64-64V160c0-35.3-28.7-64-64-64H384V56c0-30.9-25.1-56-56-56H184c-30.9 0-56 25.1-56 56zm24 88H360h88c8.8 0 16 7.2 16 16V416c0 8.8-7.2 16-16 16H64c-8.8 0-16-7.2-16-16V160c0-8.8 7.2-16 16-16h88zm72 64v48H176c-8.8 0-16 7.2-16 16v32c0 8.8 7.2 16 16 16h48v48c0 8.8 7.2 16 16 16h32c8.8 0 16-7.2 16-16V320h48c8.8 0 16-7.2 16-16V272c0-8.8-7.2-16-16-16H288V208c0-8.8-7.2-16-16-16H240c-8.8 0-16 7.2-16 16z"/></svg>
